vendor/shopware/storefront/Resources/app/storefront/dist/assets/icon/default/forward.svg

<svg xmlns="http://www.w3.org/2000/svg" width="24" height="24" viewBox="0 0 24 24">
  <path fill="#758CA3" fill-rule="evenodd" d="M15.5857864,9 L10,9 C5.581722,9 2,12.581722 2,17 L2,19.0312195 C2,19.5835043 1.55228475,20.0312195 1,20.0312195 C0.44771525,20.0312195 0,19.5835043 0,19.0312195 L0,17 C0,11.4771525 4.4771525,7 10,7 L15.5857864,7 L13.2928932,4.70710678 C12.9023689,4.31658249 12.9023689,3.68341751 13.2928932,3.29289322 C13.6834175,2.90236893 14.3165825,2.90236893 14.7071068,3.29289322 L18.7071068,7.29289322 C19.0976311,7.68341751 19.0976311,8.31658249 18.7071068,8.70710678 L14.7071068,12.7071068 C14.3165825,13.0976311 13.6834175,13.0976311 13.2928932,12.7071068 C12.9023689,12.3165825 12.9023689,11.6834175 13.2928932,11.2928932 L15.5857864,9 Z M21.5857864,8 L18.2928932,4.70710678 C17.9023689,4.31658249 17.9023689,3.68341751 18.2928932,3.29289322 C18.6834175,2.90236893 19.3165825,2.90236893 19.7071068,3.29289322 L23.7071068,7.29289322 C24.0976311,7.68341751 24.0976311,8.31658249 23.7071068,8.70710678 L19.7071068,12.7071068 C19.3165825,13.0976311 18.6834175,13.0976311 18.2928932,12.7071068 C17.9023689,12.3165825 17.9023689,11.6834175 18.2928932,11.2928932 L21.5857864,8 Z"/>
</svg>

<svg xmlns="http://www.w3.org/2000/svg" width="24" height="24" viewBox="0 0 24 24"><path fill="#758CA3" fill-rule="evenodd" d="M15.5858 9H10c-4.4183 0-8 3.5817-8 8v2.0312c0 .5523-.4477 1-1 1s-1-.4477-1-1V17C0 11.4772 4.4772 7 10 7h5.5858l-2.293-2.2929c-.3904-.3905-.3904-1.0237 0-1.4142.3906-.3905 1.0238-.3905 1.4143 0l4 4c.3905.3905.3905 1.0237 0 1.4142l-4 4c-.3905.3905-1.0237.3905-1.4142 0-.3905-.3905-.3905-1.0237 0-1.4142L15.5858 9zm6-1-3.293-3.2929c-.3904-.3905-.3904-1.0237 0-1.4142.3906-.3905 1.0238-.3905 1.4143 0l4 4c.3905.3905.3905 1.0237 0 1.4142l-4 4c-.3905.3905-1.0237.3905-1.4142 0-.3905-.3905-.3905-1.0237 0-1.4142L21.5858 8z"/></svg>
